X: 108
T: No_196_Drunken_Dance_Song_(d).krn
N: Derived from No_196_Drunken_Dance_Song_(d).krn
%%abc-version 2.0
%%abcx-abcm2ps-target-version 5.9.1 (29 Sep 2008)
%%abc-creator hum2abc beta
%%abcx-conversion-date 2019/03/15 08:38:45
%%humdrum-veritas 54140241
%%humdrum-veritas-data 2625484592
%%linebreak <none>
%%barnumbers 0
L: 1/16
M: 5/8
K: F clef=bass
[K:clef=bass][M:5/8]F,F,F,F,G,2D,3F, [I:setbarnb 2]| 
F,3D,C,4z2 | 
F,F,F,F,G,2D,3F, | 
F,3D,C,4z2 | 
F,F,F,F,G,2F,3G, | 
G,F,G,2F,4z2 | 
B,3G,A,2D,3G, | 
F,3D,C,4z2 :|]  



